X: 11
T: The Green Cottage
R: polka
M: 2/4
L: 1/8
K: Dmaj
B>A|:GE ED|B,E E>F|GF ED|GA B/d/B/A/|
GE ED|B,E E2|B>A GF|1E2 B>A:|2E3 A||
|:Be ef|ed BA|Be df|e3f|
g2 f2|ed BA|BE E/F/G/A/|1B3 A:|2B4||


Tune 559	Setting 559

